!!!OTL: 2003. Unser Geleit.
!!!ODT: 1880
!!!ARE: Europa, Mitteleuropa, Deutschland, Hessen, Hanau
!!!SCT: E2003
!!!TXL: @@DE
!!!YEM: Copyright 1995, estate of Helmut Schaffrath.
**kern	**text
*ICvox	*
*M4/4	*
*met(c)	*
*k[f#c#]	*
*D:	*
!LO:TX:a:t=Mel. aus der Gegend v. Hanau. 1880.	!
{8f#L	Wer
8gJ	.
=1	=1
4a	leucht't
4a	uns
4a	denn
(8b	bei
8cc#)	der
=2	=2
4dd	fin-
8f#L	-ſtern
8gJ	.
4a}	Nacht,
{8b	al-
8cc#	-ler-
=3	=3
4dd	-lieb-
4f#	-ſter
4e	Je-
4c#	-ſu
=4	=4
2d	mein?
4r}	.
{4a	Das
=5	=5
4.dd	thun
8ee	die
8ff#	lie-
8ee	-ben,
8dd	lie-
8cc#	-ben
=6	=6
4cc#	En-
4b	-ge-
4b}	-lein,
{8bL	die
8cc#J	.
=7	=7
4dd	ſol-
8dd	-len
8dd	heut
8eeL	Nacht
8ddJ	.
8cc#	un-
8b	-ſre
=8	=8
4a	Wäch-
4g	-ter
4f#}	ſein,
{8a	al-
8cc#	-ler-
=9	=9
4dd	-lieb-
4f#	-ſter
4e	Je-
4c#	-ſu
=10	=10
2d	mein!
4r}	.
==	==
!!!AGN: geistlich, Trost -, Lob - Lied
!!!ONB: ESAC (Essen Associative Code) Database: ERK3
!!!AMT: simple quadruple
!!!AIN: vox
!!!EED: Helmut Schaffrath
!!!EEV: 1.0
!!!GTL: Geistliche Lieder. 2. Gottesglaube und Gottesverehrung in Liedern: Bitt-, Lob-, Dank- und Trostlieder, nebst einigen Lehrgesaengen. 
!!!URL-scan: https://rosdok.uni-rostock.de/mcrviewer/recordIdentifier/rosdok_ppn745177999/iview2/phys_0713.iview2?x=187.54249976177812&y=748.8153673382476&scale=0.7014306698522891&rotation=0&layout=singlePageLayout
!!!ENC: Anna Maria Matuszewska
!!!EEV: 2025/10/01
*-	*-
